packages/astro-components-stencil/src/icons/signal-wifi-4-bar-lock.svg

<svg width="24" height="24" viewBox="0 0 24 24" fill="none" xmlns="http://www.w3.org/2000/svg">
<path fill-rule="evenodd" clip-rule="evenodd" d="M21.55 9.61L23.64 7C23.6233 6.98743 23.6012 6.97032 23.5736 6.94902C22.8556 6.39434 18.4619 3 12 3C5.53324 3 1.1501 6.38933 0.427896 6.94779L0.427873 6.94781C0.399601 6.96967 0.37694 6.98719 0.359985 7L10.44 19.56C11.24 20.56 12.76 20.56 13.56 19.56L15.5 17.14V14.5C15.5 11.7 17.7 9.5 20.5 9.5C20.86 9.5 21.21 9.54 21.55 9.61ZM23 16V14.5C23 13.1 21.9 12 20.5 12C19.1 12 18 13.1 18 14.5V16C17.5 16 17 16.5 17 17V21C17 21.5 17.5 22 18 22H23C23.5 22 24 21.5 24 21V17C24 16.5 23.5 16 23 16ZM19 16H22V14.5C22 13.7 21.3 13 20.5 13C19.7 13 19 13.7 19 14.5V16Z" fill="black"/>
</svg>

<svg xmlns="http://www.w3.org/2000/svg" viewBox="0 0 24 24"><g xmlns="http://www.w3.org/2000/svg" id="signal-wifi-4-bar-lock" fill-rule="nonzero">
            <path d="M21.55 9.61L23.64 7c-.45-.34-4.93-4-11.64-4C5.28 3 .81 6.66.36 7l10.08 12.56c.8 1 2.32 1 3.12 0l1.94-2.42V14.5c0-2.8 2.2-5 5-5 .36 0 .71.04 1.05.11zM23 16v-1.5c0-1.4-1.1-2.5-2.5-2.5S18 13.1 18 14.5V16c-.5 0-1 .5-1 1v4c0 .5.5 1 1 1h5c.5 0 1-.5 1-1v-4c0-.5-.5-1-1-1zm-1 0h-3v-1.5c0-.8.7-1.5 1.5-1.5s1.5.7 1.5 1.5V16z"/>
        </g></svg>
